source/images/icon-energy.svg

<svg viewBox="0 0 42 56" fill="none" xmlns="http://www.w3.org/2000/svg"><path d="m19.97 35.2 18.16-31.2-34.13 26.67 15.97 4.53Zm6.05-10.4-18.16 31.2 34.14-26.68-15.98-4.52Z" fill="#F0EBFF" fill-rule="evenodd"/><path d="m34.13 0-34.13 26.67 15.97 4.53-12.11 20.8 34.14-26.68-15.98-4.52 12.11-20.8Zm1.7 25.75-15.32-4.34 10.14-17.43-28.49 22.27 15.32 4.33-10.14 17.43 28.49-22.26Z" fill="#7859CF" fill-rule="evenodd"/></svg>

<svg width="42.000244" height="56.000000" viewBox="0 0 42.0002 56" fill="none" xmlns="http://www.w3.org/2000/svg" xmlns:xlink="http://www.w3.org/1999/xlink">
	<desc>
			Created with Pixso.
	</desc>
	<defs/>
	<path id="Union" d="M19.97 35.2L38.13 4L4 30.67L19.97 35.2ZM26.02 24.8L7.86 56L42 29.32L26.02 24.8Z" fill="#F0EBFF" fill-opacity="1.000000" fill-rule="evenodd"/>
	<path id="Union (Stroke)" d="M34.13 0L0 26.67L15.97 31.2L3.86 52L38 25.32L22.02 20.8L34.13 0ZM35.83 25.75L20.51 21.41L30.65 3.98L2.16 26.25L17.48 30.58L7.34 48.01L35.83 25.75Z" fill="#7859CF" fill-opacity="1.000000" fill-rule="evenodd"/>
</svg>
